X: 42124
T: Washington Square Park
R: three-two
M: 3/2
K: Emajor
FGE B, (3B,CE|FEE B, (3B,CE|AGB GFE|FF/E/F cB/G/F/E/|
FGE B, (3B,CE|FEE B, (3B,CE|cBB GFE|E3:|
gef eb/c/e/f/|bef eb/c/e/f/|=gee =ddB|A=dB ab/c/e/f/|
gef eb/c/e/f/|bef eb/c/e/f/|=gee =ddB|A4 b/c/e/f/:|
gef eb/c/e/f/|bef eb/=c/e/f/|=gee =ddB|c3||

